X:137
T:B137-  The fairest nymph the valleys
Q:1/4=120
L:1/4
M:4/4
K:Gdorian
G|B3/2c/2BA/2G/2|^FFzF|GABc|\
d2zA|BGc3/2B/2|A/2G/2F/2E/2 DB/2c/2|dG/2A/2BA|\
G3G|B3/2c/2BA/2G/2|^FFzF|GABc|\
d2zA|BGc3/2B/2|A/2G/2F/2E/2 DB/2c/2|dG/2A/2BA/2G/2|\
G3||z|AA/2A/2AB/2c/2|dA/2G/2^FD|G3/2B/2A3/2c/2|\
B3B|cdc3/2B/2|B3d/2e/2|f/2B/2dcB/2c/2|\
d/2G/2BAD/2E/2|FGA3/2G/2|G3|]
